material/.icons/material/git.svg

<svg xmlns="http://www.w3.org/2000/svg" viewBox="0 0 24 24"><path d="M2.6 10.59L8.38 4.8l1.69 1.7c-.24.85.15 1.78.93 2.23v5.54c-.6.34-1 .99-1 1.73a2 2 0 002 2 2 2 0 002-2c0-.74-.4-1.39-1-1.73V9.41l2.07 2.09c-.07.15-.07.32-.07.5a2 2 0 002 2 2 2 0 002-2 2 2 0 00-2-2c-.18 0-.35 0-.5.07L13.93 7.5a1.98 1.98 0 00-1.15-2.34c-.43-.16-.88-.2-1.28-.09L9.8 3.38l.79-.78c.78-.79 2.04-.79 2.82 0l7.99 7.99c.79.78.79 2.04 0 2.82l-7.99 7.99c-.78.79-2.04.79-2.82 0L2.6 13.41c-.79-.78-.79-2.04 0-2.82z"/></svg>

<?xml version="1.0" encoding="UTF-8"?><!DOCTYPE svg PUBLIC "-//W3C//DTD SVG 1.1//EN" "http://www.w3.org/Graphics/SVG/1.1/DTD/svg11.dtd"><svg xmlns="http://www.w3.org/2000/svg" xmlns:xlink="http://www.w3.org/1999/xlink" version="1.1" id="mdi-git" width="24" height="24" viewBox="0 0 24 24"><path d="M2.6,10.59L8.38,4.8L10.07,6.5C9.83,7.35 10.22,8.28 11,8.73V14.27C10.4,14.61 10,15.26 10,16A2,2 0 0,0 12,18A2,2 0 0,0 14,16C14,15.26 13.6,14.61 13,14.27V9.41L15.07,11.5C15,11.65 15,11.82 15,12A2,2 0 0,0 17,14A2,2 0 0,0 19,12A2,2 0 0,0 17,10C16.82,10 16.65,10 16.5,10.07L13.93,7.5C14.19,6.57 13.71,5.55 12.78,5.16C12.35,5 11.9,4.96 11.5,5.07L9.8,3.38L10.59,2.6C11.37,1.81 12.63,1.81 13.41,2.6L21.4,10.59C22.19,11.37 22.19,12.63 21.4,13.41L13.41,21.4C12.63,22.19 11.37,22.19 10.59,21.4L2.6,13.41C1.81,12.63 1.81,11.37 2.6,10.59Z" /></svg>
